Sources/FrostedUI/Resources/Icons.xcassets/calendarX20.imageset/calendar-x-20.svg

<svg width="20" height="20" viewBox="0 0 20 20" fill="none" xmlns="http://www.w3.org/2000/svg" data-fui-icon="true">
  <path
    d="M13.542 1.54199C13.9561 1.54217 14.292 1.87789 14.292 2.29199V3.20898H15.208C16.5426 3.20898 17.6248 4.29047 17.625 5.625V15.209C17.6247 16.5434 16.5425 17.625 15.208 17.625H4.79199C3.4575 17.625 2.37531 16.5434 2.375 15.209V5.625C2.37518 4.29046 3.45741 3.20898 4.79199 3.20898H5.70801V2.29199C5.70801 1.87789 6.04394 1.54217 6.45801 1.54199C6.87222 1.54199 7.20801 1.87778 7.20801 2.29199V3.20898H12.792V2.29199C12.792 1.87778 13.1278 1.54199 13.542 1.54199ZM4.79199 4.70898C4.28584 4.70898 3.87518 5.11889 3.875 5.625V15.209C3.87531 15.715 4.28591 16.125 4.79199 16.125H15.208C15.7141 16.125 16.1247 15.715 16.125 15.209V5.625C16.1248 5.11888 15.7142 4.70898 15.208 4.70898H4.79199ZM11.5547 7.80371C11.8476 7.51082 12.3223 7.51082 12.6152 7.80371C12.9077 8.09664 12.908 8.57149 12.6152 8.86426L11.0605 10.4189L12.6133 11.9717C12.906 12.2646 12.9061 12.7394 12.6133 13.0322C12.3204 13.3248 11.8456 13.3248 11.5527 13.0322L10 11.4795L8.44727 13.0322C8.15449 13.3249 7.6796 13.3247 7.38672 13.0322C7.09387 12.7394 7.09395 12.2646 7.38672 11.9717L8.93945 10.4189L7.38477 8.86426C7.09196 8.57146 7.09215 8.09663 7.38477 7.80371C7.67766 7.51082 8.15242 7.51082 8.44531 7.80371L10 9.3584L11.5547 7.80371Z"
    fill="currentColor"
  />
</svg>

<svg xmlns="http://www.w3.org/2000/svg" width="20" height="20" fill="none" data-fui-icon="true" viewBox="0 0 20 20"><path fill="currentColor" d="M13.542 1.542a.75.75 0 0 1 .75.75v.917h.916a2.417 2.417 0 0 1 2.417 2.416v9.584a2.417 2.417 0 0 1-2.417 2.416H4.792a2.417 2.417 0 0 1-2.417-2.416V5.625a2.417 2.417 0 0 1 2.417-2.416h.916v-.917a.75.75 0 0 1 1.5 0v.917h5.584v-.917a.75.75 0 0 1 .75-.75m-8.75 3.167a.917.917 0 0 0-.917.916v9.584c0 .506.41.916.917.916h10.416c.506 0 .917-.41.917-.916V5.625a.917.917 0 0 0-.917-.916zm6.763 3.095a.75.75 0 1 1 1.06 1.06L11.06 10.42l1.553 1.553a.75.75 0 0 1-1.06 1.06L10 11.48l-1.553 1.553a.75.75 0 0 1-1.06-1.06l1.552-1.553-1.554-1.555a.75.75 0 0 1 1.06-1.06L10 9.358z"/></svg>
